kolibri/shared/side_nav/sidenav_desktop_explore_active.svg

<?xml version="1.0" encoding="UTF-8" standalone="no"?>
<svg width="100px" height="850px" viewBox="0 0 100 850" version="1.1" xmlns="http://www.w3.org/2000/svg" xmlns:xlink="http://www.w3.org/1999/xlink">
    <defs></defs>
    <g id="sidenav_desktop_explore_active" stroke="none" stroke-width="1" fill="none" fill-rule="evenodd">
        <rect id="Rectangle" fill="#FFFFFF" x="0" y="0" width="100" height="850"></rect>
        <rect id="Rectangle-2" fill="#996192" x="0" y="160" width="100" height="168"></rect>
        <text id="Search" fill="#996192" font-family="NotoSans, Noto Sans" font-size="14" font-weight="normal">
            <tspan x="26" y="429">Search</tspan>
        </text>
        <path d="M56.7938822,395.578616 L55.1005089,395.578616 L54.5003259,394.999868 C56.6009663,392.556266 57.8656375,389.383871 57.8656375,385.932819 C57.8656375,378.237616 51.6280217,372 43.9328188,372 C36.2376158,372 30,378.237616 30,385.932819 C30,393.628022 36.2376158,399.865638 43.9328188,399.865638 C47.3838708,399.865638 50.5562664,398.600966 52.9998685,396.500326 L53.5786164,397.100509 L53.5786164,398.793882 L64.2961692,409.49 L67.49,406.296169 L56.7938822,395.578616 L56.7938822,395.578616 L56.7938822,395.578616 Z M43.9328188,395.578616 C38.5954774,395.578616 34.2870212,391.27016 34.2870212,385.932819 C34.2870212,380.595477 38.5954774,376.287021 43.9328188,376.287021 C49.2701601,376.287021 53.5786164,380.595477 53.5786164,385.932819 C53.5786164,391.27016 49.2701601,395.578616 43.9328188,395.578616 L43.9328188,395.578616 L43.9328188,395.578616 Z" id="Shape" fill="#996192"></path>
        <text id="Explore" fill="#FFFFFF" font-family="NotoSans, Noto Sans" font-size="14" font-weight="normal">
            <tspan x="25" y="272">Explore</tspan>
        </text>
        <path d="M50,230.8 C48.78,230.8 47.8,231.78 47.8,233 C47.8,234.22 48.78,235.2 50,235.2 C51.22,235.2 52.2,234.22 52.2,233 C52.2,231.78 51.22,230.8 50,230.8 L50,230.8 L50,230.8 Z M50,213 C38.96,213 30,221.96 30,233 C30,244.04 38.96,253 50,253 C61.04,253 70,244.04 70,233 C70,221.96 61.04,213 50,213 L50,213 L50,213 Z M54.38,237.38 L38,245 L45.62,228.62 L62,221 L54.38,237.38 L54.38,237.38 L54.38,237.38 Z" id="Shape" fill="#FFFFFF"></path>
        <text id="Learn" fill="#996192" font-family="NotoSans, Noto Sans" font-size="14" font-weight="normal">
            <tspan x="31" y="109">Learn</tspan>
        </text>
        <polygon id="Shape" fill="#996192" points="46 90 46 78 54 78 54 90 64 90 64 74 70 74 50 56 30 74 36 74 36 90"></polygon>
    </g>
</svg>

<svg xmlns="http://www.w3.org/2000/svg" width="100" height="850" viewBox="0 0 100 850">
  <g id="sidenav_desktop_explore_active" fill="none" fill-rule="evenodd">
    <rect id="Rectangle" width="100" height="850" fill="#FFFFFF"/>
    <rect id="Rectangle-2" width="100" height="168" y="160" fill="#996192"/>
    <text id="Search" fill="#996192" font-family="NotoSans, Noto Sans" font-size="14">
      <tspan x="26" y="429">Search</tspan>
    </text>
    <path id="Shape" fill="#996192" d="M56.794 395.579H55.1l-.6-.58a13.871 13.871 0 0 0 3.365-9.066c0-7.695-6.238-13.933-13.933-13.933C36.238 372 30 378.238 30 385.933c0 7.695 6.238 13.933 13.933 13.933 3.45 0 6.623-1.265 9.067-3.366l.579.6v1.694l10.717 10.696 3.194-3.194-10.696-10.717zm-12.861 0a9.633 9.633 0 0 1-9.646-9.646 9.633 9.633 0 0 1 9.646-9.646 9.633 9.633 0 0 1 9.646 9.646 9.633 9.633 0 0 1-9.646 9.646z"/>
    <text id="Explore" fill="#FFFFFF" font-family="NotoSans, Noto Sans" font-size="14">
      <tspan x="25" y="272">Explore</tspan>
    </text>
    <path id="Shape" fill="#FFFFFF" d="M50 230.8c-1.22 0-2.2.98-2.2 2.2 0 1.22.98 2.2 2.2 2.2 1.22 0 2.2-.98 2.2-2.2 0-1.22-.98-2.2-2.2-2.2zm0-17.8c-11.04 0-20 8.96-20 20s8.96 20 20 20 20-8.96 20-20-8.96-20-20-20zm4.38 24.38L38 245l7.62-16.38L62 221l-7.62 16.38z"/>
    <text id="Learn" fill="#996192" font-family="NotoSans, Noto Sans" font-size="14">
      <tspan x="31" y="109">Learn</tspan>
    </text>
    <polygon id="Shape" fill="#996192" points="46 90 46 78 54 78 54 90 64 90 64 74 70 74 50 56 30 74 36 74 36 90"/>
  </g>
</svg>
